X: 21843
T: Kirkgate
R: hornpipe
M: 4/4
K: Gmajor
|:gd|B2B2 BcAB|G2G2G2 Bc|dBdB edcB|cBAG FAFD|
B2B2 Bd^ce|d2d2d2 ag|fafd ege^c|d2d2d2:|
|:AB|c2c2c2 AB|cBAG GFED|d2d2d2 ef|gfed cBAG|
e2e2 egfg|d2d2 dgfg|dBec BAGF|G2G2G2:|

